assets/shop-tab/Asset/header.svg

<svg width="316" height="29" viewBox="0 0 316 29" fill="none" xmlns="http://www.w3.org/2000/svg">
<path fill-rule="evenodd" clip-rule="evenodd" d="M290.3 0C292.841 0 295.313 1.05758 297.322 3.00474L303.536 9.04207C306.802 12.2146 310.764 14.0387 314.875 14.2961L315.867 14.324C311.399 14.324 307.064 16.1816 303.536 19.6059L297.322 25.6433C295.313 27.5904 292.841 28.6535 290.3 28.6535H25.5669C23.0261 28.6535 20.5539 27.5904 18.5453 25.6433L12.3306 19.6059C8.80268 16.1816 4.46358 14.324 0 14.324L0.991454 14.2961C5.1031 14.0387 9.06449 12.2146 12.3306 9.04207L18.5453 3.00474C20.5539 1.05758 23.0261 0 25.5669 0H290.3Z" fill="#114899"/>
</svg>

<svg xmlns="http://www.w3.org/2000/svg" width="316" height="29" fill="none" viewBox="0 0 316 29"><path fill="#114899" fill-rule="evenodd" d="M290.3 0c2.541 0 5.013 1.058 7.022 3.005l6.214 6.037c3.266 3.173 7.228 4.997 11.339 5.254l.992.028c-4.468 0-8.803 1.858-12.331 5.282l-6.214 6.037c-2.009 1.947-4.481 3.01-7.022 3.01H25.567c-2.54 0-5.013-1.063-7.022-3.01l-6.214-6.037C8.803 16.182 4.464 14.324 0 14.324l.991-.028c4.112-.257 8.073-2.081 11.34-5.254l6.214-6.037C20.554 1.058 23.026 0 25.567 0z" clip-rule="evenodd"/></svg>
